icons/solid/currency-bangladeshi.svg

<svg width="24" height="24" viewBox="0 0 24 24" fill="none" xmlns="http://www.w3.org/2000/svg">
<path fill-rule="evenodd" clip-rule="evenodd" d="M12 21.75C17.3848 21.75 21.75 17.3848 21.75 12C21.75 6.61522 17.3848 2.25 12 2.25C6.61522 2.25 2.25 6.61522 2.25 12C2.25 17.3848 6.61522 21.75 12 21.75ZM10.5002 7.96345C10.5002 6.84838 9.3267 6.12314 8.32934 6.62181L7.91475 6.82911C7.54427 7.01435 7.3941 7.46485 7.57934 7.83534C7.76459 8.20582 8.21509 8.35599 8.58557 8.17075L9.00016 7.96345V9.74993H8.25016C7.83595 9.74993 7.50016 10.0857 7.50016 10.4999C7.50016 10.9141 7.83595 11.2499 8.25016 11.2499H9.00016V15.9382C9.00016 16.5014 9.25961 17.1356 9.8671 17.4631C10.5027 17.8058 11.2299 18 12.0002 18C14.1781 18 15.9932 16.4535 16.4102 14.3992C16.6086 13.4217 15.7739 12.75 14.9952 12.75H14.2502C13.836 12.75 13.5002 13.0857 13.5002 13.5C13.5002 13.9142 13.836 14.25 14.2502 14.25H14.9058C14.5731 15.544 13.3975 16.5 12.0002 16.5C11.4844 16.5 11.0012 16.3705 10.579 16.1428C10.5674 16.1366 10.5508 16.1239 10.5338 16.0916C10.5155 16.0567 10.5002 16.0036 10.5002 15.9382V11.2499H15.7502C16.1644 11.2499 16.5002 10.9141 16.5002 10.4999C16.5002 10.0857 16.1644 9.74993 15.7502 9.74993H10.5002V7.96345Z" fill="#0F172A"/>
</svg>

<svg xmlns="http://www.w3.org/2000/svg" viewBox="0 0 24 24" fill="currentColor" aria-hidden="true">
  <path fill-rule="evenodd" d="M12 21.75c5.385 0 9.75-4.365 9.75-9.75S17.385 2.25 12 2.25 2.25 6.615 2.25 12s4.365 9.75 9.75 9.75zM10.5 7.963a1.5 1.5 0 00-2.17-1.341l-.415.207a.75.75 0 00.67 1.342L9 7.963V9.75h-.75a.75.75 0 100 1.5H9v4.688c0 .563.26 1.198.867 1.525A4.501 4.501 0 0016.41 14.4c.199-.977-.636-1.649-1.415-1.649h-.745a.75.75 0 100 1.5h.656a3.002 3.002 0 01-4.327 1.893.113.113 0 01-.045-.051.336.336 0 01-.034-.154V11.25h5.25a.75.75 0 000-1.5H10.5V7.963z" clip-rule="evenodd"/>
</svg>
